icons/lines/archive.svg

<svg xmlns="http://www.w3.org/2000/svg" width="24" height="24" viewBox="0 0 24 24" fill="none" stroke="currentColor" stroke-width="2" stroke-linecap="round" stroke-linejoin="round" >
  <path d="M9 22H15C20 22 22 20 22 15V9C22 4 20 2 15 2H9C4 2 2 4 2 9V15C2 20 4 22 9 22Z"/>
  <path d="M18 7.75V14.5C18 13.4 17.1 12.5 16 12.5H8C6.9 12.5 6 13.4 6 14.5V7.75C6 6.65 6.9 5.75 8 5.75H16C17.1 5.75 18 6.65 18 7.75Z"/>
  <path d="M19 15.75H18"/>
  <path d="M6 15.75H5"/>
  <path d="M18 14V11C18 9.9 17.1 9 16 9H8C6.9 9 6 9.9 6 11V14"/>
  <path d="M18 14.5V15.75H14.5C14.5 17.13 13.38 18.25 12 18.25C10.62 18.25 9.5 17.13 9.5 15.75H6V14.5C6 13.4 6.9 12.5 8 12.5H16C17.1 12.5 18 13.4 18 14.5Z"/>
  </svg>

<svg xmlns="http://www.w3.org/2000/svg" width="24" height="24" viewBox="0 0 24 24" fill="none" stroke="currentColor" stroke-width="2" stroke-linecap="round" stroke-linejoin="round">
  <path d="M15 22c5 0 7-2 7-7V9c0-5-2-7-7-7H9C4 2 2 4 2 9v6c0 5 2 7 7 7z" />
  <path d="M16 12.5a2 2 0 0 1 2 2 2 2 0 0 0-2-2H8a2 2 0 0 0-2 2 2 2 0 0 1 2-2" />
  <path d="M18 11a2 2 0 0 0-2-2H8a2 2 0 0 0-2 2" />
  <path d="M5 15.75h4.5a1 1 0 0 0 5 0H19" />
  <path d="M6 15.75v-8a2 2 0 0 1 2-2h8a2 2 0 0 1 2 2v8" />
</svg>
